plasma/desktoptheme/Arc-Color/icons/kdeconnect.svg

<?xml version="1.0" encoding="UTF-8"?>
<svg width="32" height="32" version="1.1" xmlns="http://www.w3.org/2000/svg">
 <defs>
  <style id="current-color-scheme" type="text/css">.ColorScheme-Background {color:#2f343f; } .ColorScheme-ButtonBackground { color:#444a58; } .ColorScheme-Highlight { color:#5c87cc; } .ColorScheme-Text { color:#d3dae3; } .ColorScheme-NegativeText { color:#f44336; } .ColorScheme-PositiveText { color:#4caf50; } .ColorScheme-NeutralText { color:#ff9800; }</style>
 </defs>
 <g id="22-22-kdeconnect" transform="translate(32 10)">
  <rect width="22" height="22" rx="0" ry="0" opacity=".001"/>
  <path class="ColorScheme-Text" transform="translate(-32,-10)" d="m39 13c-1 0-1 1-1 1v14s0 1 1 1h8c1 0 1-1 1-1v-14s0-1-1-1zm7 3v9h-6v-8.998zm-3.5 10h1c0.277 0 0.5 0.223 0.5 0.5v1c0 0.277-0.223 0.5-0.5 0.5h-1c-0.277 0-0.5-0.223-0.5-0.5v-1c0-0.277 0.223-0.5 0.5-0.5z" fill="currentColor"/>
 </g>
 <g id="kdeconnect">
  <rect width="32" height="32" rx="0" ry="0" opacity=".001"/>
  <path class="ColorScheme-Text" d="m9.5 4c-1.5 0-1.5 1.5-1.5 1.5v21s1e-6 1.5 1.5 1.5h12c1.5 0 1.5-1.5 1.5-1.5v-21s0-1.5-1.5-1.5h-12zm10.5 4v14h-9v-13.996l9-0.0039062zm-5.25 15h0.75 0.75c0.4155 0 0.75 0.3345 0.75 0.75v0.75 0.75c0 0.4155-0.3345 0.75-0.75 0.75h-0.75-0.75c-0.4155 0-0.75-0.3345-0.75-0.75v-0.75-0.75c0-0.4155 0.3345-0.75 0.75-0.75z" fill="currentColor"/>
 </g>
</svg>

<svg xmlns="http://www.w3.org/2000/svg" width="32" height="32" version="1.1">
 <defs>
  <style id="current-color-scheme" type="text/css">
   .ColorScheme-Background {color:#2f343f; } .ColorScheme-ButtonBackground { color:#444a58; } .ColorScheme-Highlight { color:#5c87cc; } .ColorScheme-Text { color:#d3dae3; } .ColorScheme-NegativeText { color:#f44336; } .ColorScheme-PositiveText { color:#4caf50; } .ColorScheme-NeutralText { color:#ff9800; }
  </style>
 </defs>
 <g id="22-22-kdeconnect" transform="translate(32.000001,10.000001)">
  <rect style="opacity:0.001" width="22" height="22" x="0" y="0" rx="0" ry="0"/>
  <path style="fill:currentColor" class="ColorScheme-Text" transform="translate(-32,-10)" d="m 39,13 c -1,0 -1,1 -1,1 v 14 c 0,0 0,1 1,1 h 8 c 1,0 1,-1 1,-1 V 14 c 0,0 0,-1 -1,-1 z m 7,3 v 9 h -6 v -8.998047 z m -3.5,10 h 0.5 0.5 c 0.277,0 0.5,0.223 0.5,0.5 V 27 27.5 C 44,27.777 43.777,28 43.5,28 H 43 42.5 C 42.223,28 42,27.777 42,27.5 V 27 26.5 C 42,26.223 42.223,26 42.5,26 Z"/>
 </g>
 <g id="kdeconnect">
  <rect style="opacity:0.001" width="32" height="32" x="0" y="0" rx="0" ry="0"/>
  <path style="fill:currentColor" class="ColorScheme-Text" d="M 9.5 4 C 8.000001 4 8 5.5 8 5.5 L 8 26.5 C 8 26.5 8.000001 28 9.5 28 L 21.5 28 C 23 28 23 26.5 23 26.5 L 23 5.5 C 23 5.5 23 4 21.5 4 L 9.5 4 z M 20 8 L 20 22 L 11 22 L 11 8.0039062 L 20 8 z M 14.75 23 L 15.5 23 L 16.25 23 C 16.665499 23 17 23.3345 17 23.75 L 17 24.5 L 17 25.25 C 17 25.6655 16.665499 26 16.25 26 L 15.5 26 L 14.75 26 C 14.3345 26 14 25.6655 14 25.25 L 14 24.5 L 14 23.75 C 14 23.3345 14.3345 23 14.75 23 z"/>
 </g>
</svg>
